camera-rear-variant.svg

<svg fill="currentColor" viewBox="0 0 24 24"><path d="M6 0h12a2 2 0 0 1 2 2v20a2 2 0 0 1-2 2H6a2 2 0 0 1-2-2V2a2 2 0 0 1 2-2m6 2a2 2 0 0 0-2 2 2 2 0 0 0 2 2 2 2 0 0 0 2-2 2 2 0 0 0-2-2m1 16H9v2h4v2l3-3-3-3z"/></svg>

<svg  viewBox="0 0 24 24" fill="currentColor"><path  d="M6,0H18A2,2 0 0,1 20,2V22A2,2 0 0,1 18,24H6A2,2 0 0,1 4,22V2A2,2 0 0,1 6,0M12,2A2,2 0 0,0 10,4A2,2 0 0,0 12,6A2,2 0 0,0 14,4A2,2 0 0,0 12,2M13,18H9V20H13V22L16,19L13,16V18Z"/></svg>
